public/images/document-text.svg

<svg width="16" height="16" viewBox="0 0 16 16" fill="none" xmlns="http://www.w3.org/2000/svg">
<g id="vuesax/linear/document-text">
<g id="document-text">
<path id="Vector" d="M14.6693 6.66658V9.99992C14.6693 13.3333 13.3359 14.6666 10.0026 14.6666H6.0026C2.66927 14.6666 1.33594 13.3333 1.33594 9.99992V5.99992C1.33594 2.66659 2.66927 1.33325 6.0026 1.33325H9.33594" stroke="#EAE0FF" stroke-linecap="round" stroke-linejoin="round"/>
<path id="Vector_2" d="M14.6693 6.66659H12.0026C10.0026 6.66659 9.33594 5.99992 9.33594 3.99992V1.33325L14.6693 6.66659Z" stroke="#EAE0FF" stroke-linecap="round" stroke-linejoin="round"/>
<path id="Vector_3" d="M4.66406 8.66675H8.66406" stroke="#EAE0FF" stroke-linecap="round" stroke-linejoin="round"/>
<path id="Vector_4" d="M4.66406 11.3333H7.33073" stroke="#EAE0FF" stroke-linecap="round" stroke-linejoin="round"/>
</g>
</g>
</svg>

<svg width="16" height="16" fill="none" xmlns="http://www.w3.org/2000/svg"><g stroke="#EAE0FF" stroke-linecap="round" stroke-linejoin="round"><path d="M14.67 6.667V10c0 3.333-1.334 4.667-4.667 4.667h-4c-3.334 0-4.667-1.334-4.667-4.667V6c0-3.333 1.333-4.667 4.667-4.667h3.333"/><path d="M14.67 6.667h-2.667c-2 0-2.667-.667-2.667-2.667V1.333l5.333 5.334ZM4.664 8.667h4M4.664 11.333h2.667"/></g></svg>
